X: 143
T: A Country Morning
R: jig
M: 6/8
K: Gmajor
D|G2A B2c|cde d2c|B2B A2G|G2B A2D|
G2A B2c|cde d2c|BAG AGF|G3 G2:|
|:c3 d3|e2d B3|cdc BAG|ABc d3|
c3 d3|e2d B3|cdc BcA|G3 G2:|

